X:55
T:Blackney Dance. VWMLa.055
%%VWML:Anon2-3049-p33-0
F:http://www.vwml.org/record/Anon2/3049/p33
S:Anon. MS, late 18thC, Vaughan Williams Mem. Library
O:England;Yorkshire
Z:vmp/efdss.Simon Wilson. Reviewed PJH 2008.
M:C
L:1/8
Q:2/4=90
K:C
c>dc>G c>dc>B|A>GF>E FD-DB|c>dc>G c>dcA|GFED EC-C2:|
|:gage fgfd|efec dGG2|
gage fgfd|egdf ecc2:|\
|:cBAG AGFE|FEDC B,DD2|cBAG AGFE|FDGF ECC2:|
